packages/calcite-ui-icons/icons/catalog-32.svg

<?xml version="1.0" encoding="UTF-8"?><svg id="icons" xmlns="http://www.w3.org/2000/svg" viewBox="0 0 32 32"><defs><style>.cls-1{fill:none;}</style></defs><rect class="cls-1" width="32" height="32"/><path d="M30.99103,15l-5.99103-11H7L1.00897,15l-.00897,13h30l-.00897-13ZM7.61816,5h16.76367l5.5,10h-2.88184v-4h-2v-3h-2v-2h-14v2h-2v3h-2v4h-2.88184L7.61816,5ZM22,8h-12v-1h12v1ZM24,9v2H8v-2h16ZM26,12v3h-5l-2,4h-6l-2-4h-5v-3h20ZM1.99198,27l.00684-11h8.38302l2,4h7.23633l2-4h8.38302l.00684,11H1.99198Z"/></svg>

<svg xmlns="http://www.w3.org/2000/svg" viewBox="0 0 32 32"><path d="M0 0h32v32H0z" style="fill:none"/><path d="M30.991 15 25 4H7L1.009 15 1 28h30zM7.618 5h16.764l5.5 10H27v-4h-2V8h-2V6H9v2H7v3H5v4H2.118zM22 8H10V7h12zm2 1v2H8V9zm2 3v3h-5l-2 4h-6l-2-4H6v-3zM1.992 27l.007-11h8.383l2 4h7.236l2-4h8.383l.007 11z"/></svg>
